src/assets/images/users.svg

<svg width="239" height="113" viewBox="0 0 239 113" fill="none" xmlns="http://www.w3.org/2000/svg">
<g filter="url(#filter0_d_27_395)">
<rect x="29" y="29" width="179" height="53" rx="26.5" fill="white"/>
</g>
<circle cx="55.5" cy="55.5" r="17.5" fill="#EDF2F6"/>
<path d="M60.6374 59.2276C61.0662 58.9348 61.5692 58.7693 62.0881 58.7504C62.607 58.7315 63.1207 58.8599 63.5697 59.1207C64.0187 59.3816 64.3846 59.7642 64.6252 60.2243C64.8658 60.6845 64.9712 61.2034 64.9292 61.7209C63.8294 62.1053 62.6612 62.2549 61.5 62.16C61.4964 61.1211 61.1972 60.1037 60.6374 59.2285C60.1405 58.4491 59.455 57.8077 58.6444 57.3635C57.8338 56.9194 56.9243 56.6869 56 56.6875C55.0758 56.687 54.1665 56.9196 53.3561 57.3638C52.5457 57.8079 51.8603 58.4493 51.3635 59.2285M61.4991 62.1591L61.5 62.1875C61.5 62.3938 61.489 62.5973 61.4661 62.798C59.8027 63.7524 57.9177 64.2531 56 64.25C54.0108 64.25 52.1436 63.722 50.5339 62.798C50.5103 62.5859 50.499 62.3725 50.5 62.1591M50.5 62.1591C49.3392 62.2574 48.1716 62.1084 47.0726 61.7218C47.0307 61.2044 47.1362 60.6857 47.3768 60.2257C47.6173 59.7657 47.9832 59.3832 48.432 59.1224C48.8808 58.8616 49.3943 58.7332 49.9131 58.752C50.4318 58.7707 50.9347 58.9359 51.3635 59.2285M50.5 62.1591C50.5033 61.1202 50.804 60.1038 51.3635 59.2285M58.75 51.1875C58.75 51.9168 58.4603 52.6163 57.9445 53.132C57.4288 53.6478 56.7293 53.9375 56 53.9375C55.2707 53.9375 54.5712 53.6478 54.0555 53.132C53.5397 52.6163 53.25 51.9168 53.25 51.1875C53.25 50.4582 53.5397 49.7587 54.0555 49.243C54.5712 48.7272 55.2707 48.4375 56 48.4375C56.7293 48.4375 57.4288 48.7272 57.9445 49.243C58.4603 49.7587 58.75 50.4582 58.75 51.1875ZM64.25 53.9375C64.25 54.2084 64.1966 54.4766 64.093 54.7268C63.9893 54.977 63.8374 55.2044 63.6459 55.3959C63.4544 55.5874 63.227 55.7394 62.9768 55.843C62.7265 55.9467 62.4583 56 62.1875 56C61.9166 56 61.6484 55.9467 61.3982 55.843C61.148 55.7394 60.9206 55.5874 60.7291 55.3959C60.5376 55.2044 60.3856 54.977 60.282 54.7268C60.1783 54.4766 60.125 54.2084 60.125 53.9375C60.125 53.3905 60.3423 52.8659 60.7291 52.4791C61.1159 52.0923 61.6405 51.875 62.1875 51.875C62.7345 51.875 63.2591 52.0923 63.6459 52.4791C64.0327 52.8659 64.25 53.3905 64.25 53.9375ZM51.875 53.9375C51.875 54.2084 51.8216 54.4766 51.718 54.7268C51.6143 54.977 51.4624 55.2044 51.2709 55.3959C51.0794 55.5874 50.852 55.7394 50.6018 55.843C50.3515 55.9467 50.0833 56 49.8125 56C49.5416 56 49.2734 55.9467 49.0232 55.843C48.773 55.7394 48.5456 55.5874 48.3541 55.3959C48.1626 55.2044 48.0106 54.977 47.907 54.7268C47.8033 54.4766 47.75 54.2084 47.75 53.9375C47.75 53.3905 47.9673 52.8659 48.3541 52.4791C48.7409 52.0923 49.2655 51.875 49.8125 51.875C50.3595 51.875 50.8841 52.0923 51.2709 52.4791C51.6577 52.8659 51.875 53.3905 51.875 53.9375Z" stroke="#FF5656" stroke-width="2" stroke-linecap="round" stroke-linejoin="round"/>
<path d="M86.915 55.8721H90.4307V57.4365H86.915V60.9873H85.3506V57.4365H81.8438V55.8721H85.3506V52.2861H86.915V55.8721ZM98.4155 63H96.3412V54.7295C96.3412 54.4541 96.3442 54.1787 96.35 53.9033C96.3559 53.6279 96.3617 53.3584 96.3676 53.0947C96.3793 52.8311 96.394 52.5791 96.4115 52.3389C96.2885 52.4736 96.1362 52.6201 95.9545 52.7783C95.7787 52.9365 95.5912 53.1006 95.392 53.2705L93.9155 54.4482L92.8783 53.1387L96.6928 50.1504H98.4155V63ZM105.627 60.9082L105.75 61.1104C105.644 61.5322 105.51 61.9863 105.346 62.4727C105.181 62.959 105.003 63.4453 104.809 63.9316C104.616 64.4238 104.42 64.8867 104.221 65.3203H102.709C102.832 64.8457 102.949 64.3477 103.06 63.8262C103.178 63.3105 103.283 62.8008 103.377 62.2969C103.476 61.7871 103.556 61.3242 103.614 60.9082H105.627ZM116.714 56.5664C116.714 57.6035 116.632 58.5322 116.468 59.3525C116.31 60.167 116.058 60.8584 115.712 61.4268C115.366 61.9951 114.915 62.4287 114.359 62.7275C113.802 63.0264 113.128 63.1758 112.337 63.1758C111.347 63.1758 110.53 62.915 109.885 62.3936C109.241 61.8662 108.763 61.1104 108.452 60.126C108.142 59.1357 107.987 57.9492 107.987 56.5664C107.987 55.1836 108.127 54 108.408 53.0156C108.696 52.0254 109.158 51.2666 109.797 50.7393C110.436 50.2119 111.282 49.9482 112.337 49.9482C113.333 49.9482 114.154 50.2119 114.798 50.7393C115.449 51.2607 115.929 52.0166 116.24 53.0068C116.556 53.9912 116.714 55.1777 116.714 56.5664ZM110.07 56.5664C110.07 57.6504 110.14 58.5557 110.281 59.2822C110.427 60.0088 110.667 60.5537 111.001 60.917C111.335 61.2744 111.781 61.4531 112.337 61.4531C112.894 61.4531 113.339 61.2744 113.673 60.917C114.007 60.5596 114.247 60.0176 114.394 59.291C114.546 58.5645 114.622 57.6562 114.622 56.5664C114.622 55.4883 114.549 54.5859 114.403 53.8594C114.256 53.1328 114.016 52.5879 113.682 52.2246C113.348 51.8555 112.9 51.6709 112.337 51.6709C111.775 51.6709 111.326 51.8555 110.992 52.2246C110.664 52.5879 110.427 53.1328 110.281 53.8594C110.14 54.5859 110.07 55.4883 110.07 56.5664ZM127.248 56.5664C127.248 57.6035 127.166 58.5322 127.002 59.3525C126.843 60.167 126.591 60.8584 126.246 61.4268C125.9 61.9951 125.449 62.4287 124.892 62.7275C124.336 63.0264 123.662 63.1758 122.871 63.1758C121.881 63.1758 121.063 62.915 120.419 62.3936C119.774 61.8662 119.297 61.1104 118.986 60.126C118.675 59.1357 118.52 57.9492 118.52 56.5664C118.52 55.1836 118.661 54 118.942 53.0156C119.229 52.0254 119.692 51.2666 120.331 50.7393C120.969 50.2119 121.816 49.9482 122.871 49.9482C123.867 49.9482 124.687 50.2119 125.332 50.7393C125.982 51.2607 126.463 52.0166 126.773 53.0068C127.09 53.9912 127.248 55.1777 127.248 56.5664ZM120.603 56.5664C120.603 57.6504 120.674 58.5557 120.814 59.2822C120.961 60.0088 121.201 60.5537 121.535 60.917C121.869 61.2744 122.314 61.4531 122.871 61.4531C123.427 61.4531 123.873 61.2744 124.207 60.917C124.541 60.5596 124.781 60.0176 124.927 59.291C125.08 58.5645 125.156 57.6562 125.156 56.5664C125.156 55.4883 125.083 54.5859 124.936 53.8594C124.79 53.1328 124.55 52.5879 124.216 52.2246C123.882 51.8555 123.433 51.6709 122.871 51.6709C122.308 51.6709 121.86 51.8555 121.526 52.2246C121.198 52.5879 120.961 53.1328 120.814 53.8594C120.674 54.5859 120.603 55.4883 120.603 56.5664ZM137.781 56.5664C137.781 57.6035 137.699 58.5322 137.535 59.3525C137.377 60.167 137.125 60.8584 136.779 61.4268C136.434 61.9951 135.983 62.4287 135.426 62.7275C134.869 63.0264 134.195 63.1758 133.404 63.1758C132.414 63.1758 131.597 62.915 130.952 62.3936C130.308 61.8662 129.83 61.1104 129.52 60.126C129.209 59.1357 129.054 57.9492 129.054 56.5664C129.054 55.1836 129.194 54 129.476 53.0156C129.763 52.0254 130.226 51.2666 130.864 50.7393C131.503 50.2119 132.35 49.9482 133.404 49.9482C134.401 49.9482 135.221 50.2119 135.865 50.7393C136.516 51.2607 136.996 52.0166 137.307 53.0068C137.623 53.9912 137.781 55.1777 137.781 56.5664ZM131.137 56.5664C131.137 57.6504 131.207 58.5557 131.348 59.2822C131.494 60.0088 131.734 60.5537 132.068 60.917C132.402 61.2744 132.848 61.4531 133.404 61.4531C133.961 61.4531 134.406 61.2744 134.74 60.917C135.074 60.5596 135.315 60.0176 135.461 59.291C135.613 58.5645 135.69 57.6562 135.69 56.5664C135.69 55.4883 135.616 54.5859 135.47 53.8594C135.323 53.1328 135.083 52.5879 134.749 52.2246C134.415 51.8555 133.967 51.6709 133.404 51.6709C132.842 51.6709 132.394 51.8555 132.06 52.2246C131.732 52.5879 131.494 53.1328 131.348 53.8594C131.207 54.5859 131.137 55.4883 131.137 56.5664ZM153.672 53.2705V63H152.046L151.765 61.6904H151.65C151.445 62.0244 151.185 62.3027 150.868 62.5254C150.552 62.7422 150.2 62.9033 149.813 63.0088C149.427 63.1201 149.02 63.1758 148.592 63.1758C147.859 63.1758 147.232 63.0527 146.711 62.8066C146.195 62.5547 145.8 62.168 145.524 61.6465C145.249 61.125 145.111 60.4512 145.111 59.625V53.2705H147.186V59.2383C147.186 59.9941 147.338 60.5596 147.643 60.9346C147.953 61.3096 148.434 61.4971 149.084 61.4971C149.711 61.4971 150.209 61.3682 150.578 61.1104C150.947 60.8525 151.208 60.4717 151.36 59.9678C151.519 59.4639 151.598 58.8457 151.598 58.1133V53.2705H153.672ZM163.406 60.2227C163.406 60.8613 163.25 61.4004 162.94 61.8398C162.629 62.2793 162.175 62.6133 161.578 62.8418C160.986 63.0645 160.259 63.1758 159.398 63.1758C158.718 63.1758 158.132 63.126 157.64 63.0264C157.154 62.9326 156.694 62.7861 156.26 62.5869V60.8027C156.723 61.0195 157.242 61.207 157.816 61.3652C158.396 61.5234 158.944 61.6025 159.459 61.6025C160.139 61.6025 160.628 61.4971 160.927 61.2861C161.226 61.0693 161.375 60.7822 161.375 60.4248C161.375 60.2139 161.314 60.0264 161.191 59.8623C161.074 59.6924 160.851 59.5195 160.523 59.3438C160.201 59.1621 159.726 58.9453 159.099 58.6934C158.484 58.4473 157.965 58.2012 157.543 57.9551C157.121 57.709 156.802 57.4131 156.585 57.0674C156.369 56.7158 156.26 56.2676 156.26 55.7227C156.26 54.8613 156.6 54.208 157.28 53.7627C157.965 53.3115 158.87 53.0859 159.995 53.0859C160.593 53.0859 161.156 53.1475 161.683 53.2705C162.216 53.3877 162.738 53.5605 163.247 53.7891L162.597 55.3447C162.158 55.1514 161.715 54.9932 161.27 54.8701C160.83 54.7412 160.382 54.6768 159.925 54.6768C159.392 54.6768 158.985 54.7588 158.704 54.9229C158.428 55.0869 158.29 55.3213 158.29 55.626C158.29 55.8545 158.358 56.0479 158.493 56.2061C158.627 56.3643 158.859 56.5225 159.187 56.6807C159.521 56.8389 159.984 57.0352 160.576 57.2695C161.156 57.4922 161.657 57.7266 162.079 57.9727C162.506 58.2129 162.834 58.5088 163.063 58.8604C163.291 59.2119 163.406 59.666 163.406 60.2227ZM169.747 53.0859C170.614 53.0859 171.358 53.2646 171.979 53.6221C172.6 53.9795 173.078 54.4863 173.412 55.1426C173.746 55.7988 173.913 56.584 173.913 57.498V58.6055H167.418C167.441 59.5488 167.693 60.2754 168.174 60.7852C168.66 61.2949 169.34 61.5498 170.213 61.5498C170.834 61.5498 171.39 61.4912 171.883 61.374C172.381 61.251 172.893 61.0723 173.421 60.8379V62.5166C172.934 62.7451 172.439 62.9121 171.935 63.0176C171.431 63.123 170.828 63.1758 170.125 63.1758C169.17 63.1758 168.329 62.9912 167.602 62.6221C166.882 62.2471 166.316 61.6904 165.906 60.9521C165.502 60.2139 165.3 59.2969 165.3 58.2012C165.3 57.1113 165.484 56.1855 165.853 55.4238C166.222 54.6621 166.741 54.082 167.409 53.6836C168.077 53.2852 168.856 53.0859 169.747 53.0859ZM169.747 54.6416C169.097 54.6416 168.569 54.8525 168.165 55.2744C167.766 55.6963 167.532 56.3145 167.462 57.1289H171.891C171.886 56.6426 171.804 56.2119 171.645 55.8369C171.493 55.4619 171.259 55.1689 170.942 54.958C170.632 54.7471 170.233 54.6416 169.747 54.6416ZM181.406 53.0859C181.57 53.0859 181.748 53.0947 181.942 53.1123C182.135 53.1299 182.302 53.1533 182.443 53.1826L182.249 55.1162C182.126 55.0811 181.974 55.0547 181.792 55.0371C181.616 55.0195 181.458 55.0107 181.318 55.0107C180.948 55.0107 180.597 55.0723 180.263 55.1953C179.929 55.3125 179.633 55.4941 179.375 55.7402C179.117 55.9805 178.915 56.2822 178.769 56.6455C178.622 57.0088 178.549 57.4307 178.549 57.9111V63H176.475V53.2705H178.092L178.373 54.9844H178.47C178.663 54.6387 178.904 54.3223 179.191 54.0352C179.478 53.748 179.806 53.5195 180.175 53.3496C180.55 53.1738 180.96 53.0859 181.406 53.0859ZM191.016 60.2227C191.016 60.8613 190.861 61.4004 190.55 61.8398C190.24 62.2793 189.786 62.6133 189.188 62.8418C188.596 63.0645 187.87 63.1758 187.008 63.1758C186.329 63.1758 185.743 63.126 185.251 63.0264C184.764 62.9326 184.304 62.7861 183.871 62.5869V60.8027C184.334 61.0195 184.852 61.207 185.426 61.3652C186.007 61.5234 186.554 61.6025 187.07 61.6025C187.75 61.6025 188.239 61.4971 188.538 61.2861C188.837 61.0693 188.986 60.7822 188.986 60.4248C188.986 60.2139 188.924 60.0264 188.801 59.8623C188.684 59.6924 188.462 59.5195 188.133 59.3438C187.811 59.1621 187.337 58.9453 186.71 58.6934C186.094 58.4473 185.576 58.2012 185.154 57.9551C184.732 57.709 184.413 57.4131 184.196 57.0674C183.979 56.7158 183.871 56.2676 183.871 55.7227C183.871 54.8613 184.211 54.208 184.89 53.7627C185.576 53.3115 186.481 53.0859 187.606 53.0859C188.204 53.0859 188.766 53.1475 189.294 53.2705C189.827 53.3877 190.348 53.5605 190.858 53.7891L190.208 55.3447C189.768 55.1514 189.326 54.9932 188.881 54.8701C188.441 54.7412 187.993 54.6768 187.536 54.6768C187.003 54.6768 186.595 54.7588 186.314 54.9229C186.039 55.0869 185.901 55.3213 185.901 55.626C185.901 55.8545 185.968 56.0479 186.103 56.2061C186.238 56.3643 186.469 56.5225 186.798 56.6807C187.132 56.8389 187.594 57.0352 188.186 57.2695C188.766 57.4922 189.267 57.7266 189.689 57.9727C190.117 58.2129 190.445 58.5088 190.674 58.8604C190.902 59.2119 191.016 59.666 191.016 60.2227Z" fill="#494953"/>
<defs>
<filter id="filter0_d_27_395" x="0" y="0" width="239" height="113" filterUnits="userSpaceOnUse" color-interpolation-filters="sRGB">
<feFlood flood-opacity="0" result="BackgroundImageFix"/>
<feColorMatrix in="SourceAlpha" type="matrix" values="0 0 0 0 0 0 0 0 0 0 0 0 0 0 0 0 0 0 127 0" result="hardAlpha"/>
<feOffset dx="1" dy="1"/>
<feGaussianBlur stdDeviation="15"/>
<feComposite in2="hardAlpha" operator="out"/>
<feColorMatrix type="matrix" values="0 0 0 0 0 0 0 0 0 0 0 0 0 0 0 0 0 0 0.15 0"/>
<feBlend mode="normal" in2="BackgroundImageFix" result="effect1_dropShadow_27_395"/>
<feBlend mode="normal" in="SourceGraphic" in2="effect1_dropShadow_27_395" result="shape"/>
</filter>
</defs>
</svg>

<svg xmlns="http://www.w3.org/2000/svg" width="239" height="113" fill="none"><g filter="url(#a)"><rect width="179" height="53" x="29" y="29" fill="#fff" rx="26.5"/></g><circle cx="55.5" cy="55.5" r="17.5" fill="#EDF2F6"/><path stroke="#FF5656" stroke-linecap="round" stroke-linejoin="round" stroke-width="2" d="M60.637 59.228a2.75 2.75 0 0 1 4.292 2.493 8.3 8.3 0 0 1-3.429.439 5.495 5.495 0 0 0-5.5-5.472 5.5 5.5 0 0 0-4.636 2.54m10.135 2.931.001.029q0 .31-.034.61A10.95 10.95 0 0 1 56 64.25c-1.99 0-3.856-.528-5.466-1.452a6 6 0 0 1-.034-.639m0 0a8.2 8.2 0 0 1-3.427-.437 2.75 2.75 0 0 1 4.29-2.494M50.5 62.16a5.48 5.48 0 0 1 .864-2.93m7.386-8.041a2.75 2.75 0 1 1-5.5 0 2.75 2.75 0 0 1 5.5 0m5.5 2.75a2.063 2.063 0 1 1-4.126 0 2.063 2.063 0 0 1 4.126 0m-12.375 0a2.063 2.063 0 1 1-4.126 0 2.063 2.063 0 0 1 4.126 0"/><path fill="#494953" d="M86.915 55.872h3.516v1.565h-3.516v3.55h-1.564v-3.55h-3.507v-1.565h3.507v-3.586h1.564zM98.415 63h-2.074v-8.27q0-.413.009-.827l.018-.808q.017-.396.044-.756a6 6 0 0 1-.458.44 28 28 0 0 1-.562.491l-1.477 1.178-1.037-1.31 3.815-2.988h1.722zm7.212-2.092.123.202q-.158.633-.404 1.363-.247.729-.537 1.459-.29.738-.588 1.388h-1.512q.184-.711.351-1.494.176-.773.317-1.53.15-.764.237-1.388zm11.087-4.342q0 1.556-.246 2.786-.237 1.222-.756 2.075a3.5 3.5 0 0 1-1.353 1.3q-.835.45-2.022.449-1.485 0-2.452-.782-.966-.792-1.433-2.268-.465-1.485-.465-3.56 0-2.074.421-3.55.431-1.486 1.389-2.277.958-.79 2.54-.79 1.495 0 2.461.79.976.783 1.442 2.268.474 1.475.474 3.56m-6.644 0q0 1.627.211 2.716.219 1.09.72 1.635.501.536 1.336.536t1.336-.536q.5-.536.721-1.626.228-1.09.228-2.725 0-1.617-.219-2.707-.22-1.09-.721-1.634-.5-.555-1.345-.554-.843 0-1.345.554-.492.545-.711 1.634-.211 1.091-.211 2.707m17.178 0q0 1.556-.246 2.786-.239 1.222-.756 2.075a3.5 3.5 0 0 1-1.354 1.3q-.834.45-2.021.449-1.485 0-2.452-.782-.967-.792-1.433-2.268-.466-1.485-.466-3.56 0-2.074.422-3.55.43-1.486 1.389-2.277.957-.79 2.54-.79 1.494 0 2.461.79.976.783 1.441 2.268.475 1.475.475 3.56m-6.645 0q0 1.627.211 2.716.22 1.09.721 1.635.5.536 1.336.536.834 0 1.336-.536.501-.536.72-1.626.23-1.09.229-2.725 0-1.617-.22-2.707-.219-1.09-.72-1.634-.502-.555-1.345-.554-.844 0-1.345.554-.492.545-.712 1.634-.21 1.091-.211 2.707m17.178 0q0 1.556-.246 2.786-.237 1.222-.756 2.075a3.5 3.5 0 0 1-1.353 1.3q-.835.45-2.022.449-1.485 0-2.452-.782-.967-.792-1.432-2.268-.466-1.485-.466-3.56 0-2.074.422-3.55.43-1.486 1.388-2.277.959-.79 2.54-.79 1.495 0 2.461.79.976.783 1.442 2.268.474 1.475.474 3.56m-6.644 0q0 1.627.211 2.716.219 1.09.72 1.635.501.536 1.336.536t1.336-.536.721-1.626q.228-1.09.229-2.725 0-1.617-.22-2.707t-.721-1.634q-.5-.555-1.345-.554-.843 0-1.344.554-.493.545-.712 1.634-.211 1.091-.211 2.707m22.535-3.296V63h-1.626l-.281-1.31h-.115a2.8 2.8 0 0 1-.782.835 3.5 3.5 0 0 1-1.055.484 4.4 4.4 0 0 1-1.221.167q-1.1 0-1.881-.37a2.6 2.6 0 0 1-1.187-1.16q-.413-.782-.413-2.021V53.27h2.075v5.968q0 1.134.457 1.697.465.562 1.441.562.94 0 1.494-.387.554-.386.782-1.142.238-.756.238-1.855V53.27zm9.734 6.953q0 .957-.466 1.617t-1.362 1.002q-.888.334-2.18.334-1.02 0-1.758-.15a6 6 0 0 1-1.38-.44v-1.783q.695.325 1.556.562.87.237 1.643.237 1.02 0 1.468-.316.448-.325.448-.861a.9.9 0 0 0-.184-.563q-.176-.255-.668-.518-.483-.273-1.424-.65a12 12 0 0 1-1.556-.739q-.633-.369-.958-.888-.325-.527-.325-1.344 0-1.293 1.02-1.96 1.028-.677 2.715-.677.897 0 1.688.184a8 8 0 0 1 1.564.52l-.65 1.555a10 10 0 0 0-1.327-.475 4.8 4.8 0 0 0-1.345-.193q-.8 0-1.221.246-.414.246-.414.703 0 .343.203.58.202.237.694.475.501.237 1.389.589.87.334 1.503.703.64.36.984.887.343.528.343 1.363m6.341-7.137q1.3 0 2.232.536a3.6 3.6 0 0 1 1.433 1.52q.501.985.501 2.356v1.108h-6.495q.035 1.415.756 2.18.73.764 2.039.764.931 0 1.67-.176a9.3 9.3 0 0 0 1.538-.536v1.679a6.7 6.7 0 0 1-1.486.5q-.756.159-1.81.159-1.433 0-2.523-.554a4.05 4.05 0 0 1-1.696-1.67q-.606-1.107-.606-2.75 0-1.636.553-2.778.554-1.143 1.556-1.74 1.002-.598 2.338-.598m0 1.556q-.976 0-1.582.632-.598.633-.703 1.855h4.429a3.4 3.4 0 0 0-.246-1.292 1.87 1.87 0 0 0-.703-.879q-.466-.316-1.195-.316m11.659-1.556a6 6 0 0 1 1.037.097l-.194 1.933a2.6 2.6 0 0 0-.457-.079 5 5 0 0 0-.474-.026q-.554 0-1.055.184-.501.177-.888.545-.387.36-.606.905-.22.546-.22 1.266V63h-2.074v-9.73h1.617l.281 1.714h.097q.29-.518.721-.949.43-.43.984-.685a2.9 2.9 0 0 1 1.231-.264m9.61 7.137q0 .957-.466 1.617-.465.66-1.362 1.002-.888.334-2.18.334-1.019 0-1.757-.15a6 6 0 0 1-1.38-.44v-1.783q.694.325 1.555.562a6.3 6.3 0 0 0 1.644.237q1.02 0 1.468-.316.448-.325.448-.861a.9.9 0 0 0-.185-.563q-.175-.255-.668-.518-.483-.273-1.423-.65a12 12 0 0 1-1.556-.739q-.633-.369-.958-.888-.325-.527-.325-1.344 0-1.293 1.019-1.96 1.029-.677 2.716-.677.897 0 1.688.184.8.176 1.564.52l-.65 1.555a10 10 0 0 0-1.327-.475 4.8 4.8 0 0 0-1.345-.193q-.8 0-1.222.246-.413.246-.413.703 0 .343.202.58t.695.475q.5.237 1.388.589.87.334 1.503.703.642.36.985.887.342.528.342 1.363"/><defs><filter id="a" width="239" height="113" x="0" y="0" color-interpolation-filters="sRGB" filterUnits="userSpaceOnUse"><feFlood flood-opacity="0" result="BackgroundImageFix"/><feColorMatrix in="SourceAlpha" result="hardAlpha" values="0 0 0 0 0 0 0 0 0 0 0 0 0 0 0 0 0 0 127 0"/><feOffset dx="1" dy="1"/><feGaussianBlur stdDeviation="15"/><feComposite in2="hardAlpha" operator="out"/><feColorMatrix values="0 0 0 0 0 0 0 0 0 0 0 0 0 0 0 0 0 0 0.15 0"/><feBlend in2="BackgroundImageFix" result="effect1_dropShadow_27_395"/><feBlend in="SourceGraphic" in2="effect1_dropShadow_27_395" result="shape"/></filter></defs></svg>
